X:194
T:Black's Hornpipe. Le4.194
M:C|
L:1/8
N:NB. The whole of the B strain has moved into Fmaj
N:but he has been inconsistent with notating this, only naturalising
N:occasional Es, so I finished the job for him, apart from the key signature I'm afraid. CGP.
B:L.Leadley MS#4 c1850
Z:vmp. Peter Dunk 2016
Q:1/4=140
K:Bb
d>c|B<Fd>c B>Fe>d|c<Fe>d c2 f>e|\
dfBd ceAc|Bbag fedc|
B<Fd>c B<Fe>d|c>Fe>d c2 f>d|dfBd ceAc|B2B2B2:|
c>B|A>f"_NB" (=e/f/g) f2 c>B|A>f (=e/f/g) f2 g>f|\
=e>.fg>.a bgeg|f=efg f2 c>B|
A>f (=e/f/g) f2 c>B|\
A>f (=e/f/g) f2 g>f|=e>fg>a bgeg|f=efg f_ed!D.C.!c|]

